src/assets/icons/linkedin-rect.svg

<svg width="12" height="12" viewBox="0 0 12 12" fill="none" xmlns="http://www.w3.org/2000/svg">
<g clip-path="url(#clip0_19_100)">
<path d="M2.35278 0.595825C1.06018 0.595825 0.0022583 1.58 0.0022583 2.78255V9.56835C0.0022583 10.7709 1.06015 11.7547 2.35278 11.7547H9.64688C10.9395 11.7547 11.997 10.7709 11.997 9.56835V2.78255C11.997 1.58002 10.9395 0.595825 9.64688 0.595825H2.35278ZM2.94398 2.43727C3.56375 2.43727 3.94551 2.81579 3.95729 3.31334C3.95729 3.79992 3.56373 4.18908 2.93199 4.18908H2.92036C2.31238 4.18908 1.91942 3.79994 1.91942 3.31334C1.91942 2.8158 2.32427 2.43727 2.94396 2.43727H2.94398ZM8.28494 4.76279C9.47689 4.76279 10.3704 5.48757 10.3704 7.04507V9.95266H8.55898V7.24001C8.55898 6.55835 8.29682 6.09329 7.64127 6.09329C7.14082 6.09329 6.84252 6.40675 6.71156 6.70955C6.66371 6.81789 6.65195 6.96919 6.65195 7.12074V9.95266H4.84052C4.84052 9.95266 4.86429 5.35751 4.84052 4.88171H6.65232V5.59981C6.89304 5.25429 7.32363 4.76278 8.28494 4.76278V4.76279ZM2.02626 4.88208H3.8377V9.95269H2.02626V4.88208Z" fill="#515152"/>
</g>
<defs>
<clipPath id="clip0_19_100">
<rect width="12" height="11.1638" fill="white" transform="translate(0 0.593018)"/>
</clipPath>
</defs>
</svg>

<svg width="12" height="12" fill="none" xmlns="http://www.w3.org/2000/svg"><g clip-path="url(#a)"><path d="M2.353.596C1.06.596.003 1.58.003 2.783v6.785c0 1.203 1.057 2.187 2.35 2.187h7.294c1.293 0 2.35-.984 2.35-2.187V2.783c0-1.203-1.057-2.187-2.35-2.187H2.353zm.591 1.841c.62 0 1.002.379 1.013.876 0 .487-.393.876-1.025.876H2.92c-.608 0-1-.39-1-.876 0-.497.404-.876 1.024-.876zm5.34 2.326c1.193 0 2.086.725 2.086 2.282v2.908H8.56V7.24c0-.682-.262-1.147-.918-1.147-.5 0-.798.314-.93.617-.047.108-.06.26-.06.41v2.833h-1.81s.023-4.595 0-5.071h1.811V5.6c.241-.346.672-.837 1.633-.837zm-6.258.12h1.812v5.07H2.026v-5.07z" fill="#515152"/></g><defs><clipPath id="a"><path fill="#fff" transform="translate(0 .593)" d="M0 0h12v11.164H0z"/></clipPath></defs></svg>
